Yaru++/mimetypes/16/text-x-csharp.svg

<svg height="16" width="16" xmlns="http://www.w3.org/2000/svg">
  <path d="m2.285715 2.85714s-2.285715 0-2.285715 2.285718v4.57143c0 2.285712 2.285715 2.285712 2.285715 2.285712h3.428571v-1.142859h-3.428571s-1.142857 0-1.142857-1.142853v-4.57143c0-1.142859 1.142857-1.142859 1.142857-1.142859h3.428571v-1.142859zm6.857143 0v2.285718h-2.285715v1.142858h2.285715v2.285713h-2.285715v1.142859h2.285715v2.285712h1.142857v-2.285712h2.285714v2.285712h1.142857v-2.285712h2.285714v-1.142859h-2.285714v-2.285713h2.285714v-1.142858h-2.285714v-2.285718h-1.142857v2.285718h-2.285714v-2.285718zm1.142857 3.428576h2.285714v2.285713h-2.285714z" fill="#808080"/>
</svg>

<svg xmlns="http://www.w3.org/2000/svg" width="16" height="16" version="1.1">
 <path style="fill:#808080" d="m 2.285715,2.85714 c 0,0 -2.285715,0 -2.285715,2.285718 v 4.57143 C 0,12 2.285715,12 2.285715,12 H 5.714286 V 10.857141 H 2.285715 c 0,0 -1.142857,0 -1.142857,-1.142853 v -4.57143 c 0,-1.142859 1.142857,-1.142859 1.142857,-1.142859 H 5.714286 V 2.85714 Z m 6.857143,0 V 5.142858 H 6.857143 V 6.285716 H 9.142858 V 8.571429 H 6.857143 V 9.714288 H 9.142858 V 12 h 1.142857 V 9.714288 h 2.285714 V 12 h 1.142857 V 9.714288 H 16 V 8.571429 H 13.714286 V 6.285716 H 16 V 5.142858 H 13.714286 V 2.85714 H 12.571429 V 5.142858 H 10.285715 V 2.85714 Z m 1.142857,3.428576 h 2.285714 v 2.285713 h -2.285714 z"/>
</svg>
